X:1
T:Auf der Alm is koan Bleibn
A:aus Salzburg
B:"Singende Jugend", Otto Mueller Verlag, Salzburg
Z:abc transcription Simon Wascher
F:http://simonwascher.info/
M:3/4
L:1/8
K:G
D>D |\
E2c2B>A | B2G3D | D2F3B | A2G3D |
E2c2B>A | B2G3D | DFFAdF | G4DD |
E2c2B>A | B2G3D | DFFdcF | G4G>G ||
G2g2^fe | edBDGG | FdcDFF | GdB2G>G |
G2g2fe | edBDGG | FdcDFF | G4 |]
